exported-svg/arrow-up-circle.svg

<svg height="24" viewBox="0 0 24 24" width="24" xmlns="http://www.w3.org/2000/svg"><path d="m13 9.70710678v6.79289322c0 .2761424-.2238576.5-.5.5s-.5-.2238576-.5-.5v-6.79289322l-3.14644661 3.14644662c-.19526215.1952621-.51184463.1952621-.70710678 0-.19526215-.1952622-.19526215-.5118446 0-.7071068l3.99999999-3.99999999c.1952622-.19526215.5118446-.19526215.7071068 0l4 3.99999999c.1952621.1952622.1952621.5118446 0 .7071068-.1952622.1952621-.5118446.1952621-.7071068 0zm-.5 13.29289322c-5.79898987 0-10.5-4.7010101-10.5-10.5 0-5.79898987 4.70101013-10.5 10.5-10.5 5.7989899 0 10.5 4.70101013 10.5 10.5 0 5.7989899-4.7010101 10.5-10.5 10.5zm0-1c5.2467051 0 9.5-4.2532949 9.5-9.5 0-5.24670512-4.2532949-9.5-9.5-9.5-5.24670512 0-9.5 4.25329488-9.5 9.5 0 5.2467051 4.25329488 9.5 9.5 9.5z"/></svg>

<?xml version="1.0" encoding="UTF-8"?>
<svg width="24px" height="24px" viewBox="0 0 24 24" version="1.1" xmlns="http://www.w3.org/2000/svg" xmlns:xlink="http://www.w3.org/1999/xlink">
    <!-- Generator: Sketch 55.2 (78181) - https://sketchapp.com -->
    <title>arrow-up-circle</title>
    <desc>Created with Sketch.</desc>
    <g id="arrow-up-circle" stroke="none" stroke-width="1" fill="none" fill-rule="evenodd">
        <path d="M13,9.70710678 L13,16.5 C13,16.7761424 12.7761424,17 12.5,17 C12.2238576,17 12,16.7761424 12,16.5 L12,9.70710678 L8.85355339,12.8535534 C8.65829124,13.0488155 8.34170876,13.0488155 8.14644661,12.8535534 C7.95118446,12.6582912 7.95118446,12.3417088 8.14644661,12.1464466 L12.1464466,8.14644661 C12.3417088,7.95118446 12.6582912,7.95118446 12.8535534,8.14644661 L16.8535534,12.1464466 C17.0488155,12.3417088 17.0488155,12.6582912 16.8535534,12.8535534 C16.6582912,13.0488155 16.3417088,13.0488155 16.1464466,12.8535534 L13,9.70710678 Z M12.5,23 C6.70101013,23 2,18.2989899 2,12.5 C2,6.70101013 6.70101013,2 12.5,2 C18.2989899,2 23,6.70101013 23,12.5 C23,18.2989899 18.2989899,23 12.5,23 Z M12.5,22 C17.7467051,22 22,17.7467051 22,12.5 C22,7.25329488 17.7467051,3 12.5,3 C7.25329488,3 3,7.25329488 3,12.5 C3,17.7467051 7.25329488,22 12.5,22 Z" id="Combined-Shape" fill="#000000" fill-rule="nonzero"></path>
    </g>
</svg>
